svgs/sharp-regular/building-circle-exclamation.svg

<svg xmlns="http://www.w3.org/2000/svg" viewBox="0 0 640 512"><!--! Font Awesome Pro 6.4.0 by @fontawesome - https://fontawesome.com License - https://fontawesome.com/license (Commercial License) Copyright 2023 Fonticons, Inc. --><path d="M48 48H336V294.6c11.1-24.3 27.7-45.5 48-62.3V48 0H336 48 0V48 464v48H48 336h48v-8.2c-20.3-16.8-36.9-38.1-48-62.3V464H240V352H144V464H48V48zM88 88v80h80V88H88zm208 0H216v80h80V88zM88 216v80h80V216H88zm208 0H216v80h80V216zM496 512a144 144 0 1 0 0-288 144 144 0 1 0 0 288zm16-64H480V416h32v32zm0-176v16 80 16H480V368 288 272h32z"/></svg>

<svg xmlns="http://www.w3.org/2000/svg" viewBox="0 0 640 512"><!--! Font Awesome Pro 6.6.0 by @fontawesome - https://fontawesome.com License - https://fontawesome.com/license (Commercial License) Copyright 2024 Fonticons, Inc. --><path d="M48 48l288 0 0 246.6c11.1-24.3 27.7-45.5 48-62.3L384 48l0-48L336 0 48 0 0 0 0 48 0 464l0 48 48 0 288 0 48 0 0-8.2c-20.3-16.8-36.9-38.1-48-62.3l0 22.6-96 0 0-112-96 0 0 112-96 0L48 48zM88 88l0 80 80 0 0-80L88 88zm208 0l-80 0 0 80 80 0 0-80zM88 216l0 80 80 0 0-80-80 0zm208 0l-80 0 0 80 80 0 0-80zM496 512a144 144 0 1 0 0-288 144 144 0 1 0 0 288zm16-64l-32 0 0-32 32 0 0 32zm0-176l0 16 0 80 0 16-32 0 0-16 0-80 0-16 32 0z"/></svg>
